X: 1
T: Monster Cafe 1(Transcription)
R: bourrée
M: 2/4
L: 1/8
K: Gdor
G B/c/|: dc BA | ^FD F A/B/ | cB A/G/A/B/ | fe dc | 
dc BA | ^FD F A/B/ | cB AG |1 cB A B/c/ :|2 cB Ac | 
|: d2 d2 | d c2 d | f d2 f| d3 c/d/ | 
_ed cB | A3 c |1 AA GA  | G/^F/G/A/ B/A/B/c/ :|2 A/c/B/A/ G^F | G2 ||


